X: 26152
T: McIntyre's Fancy
R: jig
M: 6/8
K: Adorian
cde AAA|GAB A3|eag edc|eAA BAG|
cde dcA|G3 Gcd|ega ged|cAG A3:|
a3 ged|edg edc|A3 GAc|dec deg|
aeg dec|A3 GGG|cde ged|cAG A3:|

